raw-svg/eject.svg

<svg viewBox="0 0 24 24" xmlns="http://www.w3.org/2000/svg"><path d="m19 12.75h-14a.75.75 0 0 1 -.53-1.28l7-7a.75.75 0 0 1 1.06 0l7 7a.75.75 0 0 1 -.53 1.28zm-12.19-1.5h10.38l-5.19-5.19z"/><path d="m18 19.75h-12a1.76 1.76 0 0 1 -1.75-1.75v-2a1.76 1.76 0 0 1 1.75-1.75h12a1.76 1.76 0 0 1 1.75 1.75v2a1.76 1.76 0 0 1 -1.75 1.75zm-12-4a.25.25 0 0 0 -.25.25v2a.25.25 0 0 0 .25.25h12a.25.25 0 0 0 .25-.25v-2a.25.25 0 0 0 -.25-.25z"/></svg>

<svg xmlns="http://www.w3.org/2000/svg" viewBox="0 0 24 24"><g id="eject"><g id="_Path_" data-name="&lt;Path&gt;"><path d="M19,12.75H5a.75.75,0,0,1-.53-1.28l7-7a.75.75,0,0,1,1.06,0l7,7A.75.75,0,0,1,19,12.75ZM6.81,11.25H17.19L12,6.06Z"/></g><path d="M18,19.75H6A1.76,1.76,0,0,1,4.25,18V16A1.76,1.76,0,0,1,6,14.25H18A1.76,1.76,0,0,1,19.75,16v2A1.76,1.76,0,0,1,18,19.75Zm-12-4a.25.25,0,0,0-.25.25v2a.25.25,0,0,0,.25.25H18a.25.25,0,0,0,.25-.25V16a.25.25,0,0,0-.25-.25Z"/></g></svg>
